src/assets/brand/wordmark-vertical.svg

<svg width="283" height="129" viewBox="0 0 283 129" fill="none" xmlns="http://www.w3.org/2000/svg">
<path d="M43.0044 0V57.9192H37.2042V30.8239H5.8002V57.9192H0V0H5.8002V26.0181H37.2042V0H43.0044Z" fill="black"/>
<path d="M88.1391 44.1644L74.9644 8.03742L61.7896 44.1644L56.7352 57.9192H50.6035L71.7328 0.745741H78.2788L99.3252 57.9192H93.1936L88.1391 44.1644Z" fill="black"/>
<path d="M112.777 53.1961H133.575V57.9192H106.977V0H112.777V53.1961Z" fill="black"/>
<path d="M145.995 53.1961H166.793V57.9192H140.195V0H145.995V53.1961Z" fill="black"/>
<path d="M179.214 0V57.9192H173.414V0H179.214Z" fill="black"/>
<path d="M234.359 57.9192H228.558L196.492 9.19747V57.9192H190.691V0H196.492L228.558 48.6388V0H234.359V57.9192Z" fill="black"/>
<path d="M274.088 58.582C271.602 58.582 269.558 57.8639 267.956 56.4277C266.409 54.9362 265.636 53.1132 265.636 50.9589C265.636 48.7493 266.409 46.8987 267.956 45.4073C269.558 43.9158 271.602 43.17 274.088 43.17C276.518 43.17 278.507 43.9158 280.053 45.4073C281.655 46.8987 282.456 48.7493 282.456 50.9589C282.456 53.1132 281.655 54.9362 280.053 56.4277C278.507 57.8639 276.518 58.582 274.088 58.582Z" fill="#FF3030"/>
<path d="M68.2361 70.5837V129H51.9955V96.7675L40.9751 129H27.3861L16.2828 96.5189V129H0.0422668V70.5837H19.6801L34.3463 108.534L48.6811 70.5837H68.2361Z" fill="#FF3030"/>
<path d="M92.0641 83.5927V93.1216H110.708V105.468H92.0641V115.991H113.193V129H75.8236V70.5837H113.193V83.5927H92.0641Z" fill="#FF3030"/>
<path d="M142.679 70.5837C148.811 70.5837 154.169 71.8266 158.754 74.3124C163.394 76.743 166.957 80.1679 169.443 84.5871C171.929 89.0063 173.172 94.0607 173.172 99.7504C173.172 105.385 171.901 110.412 169.36 114.831C166.874 119.25 163.311 122.73 158.671 125.271C154.086 127.757 148.756 129 142.679 129H119.561V70.5837H142.679ZM141.436 114.665C146.187 114.665 149.916 113.367 152.623 110.771C155.329 108.175 156.683 104.501 156.683 99.7504C156.683 94.9446 155.329 91.2435 152.623 88.6472C149.916 85.9957 146.187 84.6699 141.436 84.6699H135.802V114.665H141.436Z" fill="#FF3030"/>
<path d="M195.076 70.5837V129H178.835V70.5837H195.076Z" fill="#FF3030"/>
<path d="M237.077 115.799L218.908 123.533L215.759 129H198.69L219.985 70.5837H238.712L259.924 129H242.772L237.077 115.799ZM235.046 102.599L229.265 88.15L221.846 109.707L235.046 102.599Z" fill="#FF3030"/>
</svg>

<svg xmlns="http://www.w3.org/2000/svg" fill="none" viewBox="0 0 283 129"><path fill="#000" d="M43.004 0v57.92h-5.8V30.823H5.8v27.095H0V0h5.8v26.018h31.404V0h5.8ZM88.14 44.164 74.963 8.037 61.79 44.164 56.735 57.92h-6.132L71.733.746h6.546l21.046 57.173h-6.131l-5.055-13.755ZM112.777 53.196h20.798v4.723h-26.598V0h5.8v53.196ZM145.995 53.196h20.798v4.723h-26.598V0h5.8v53.196ZM179.214 0v57.92h-5.8V0h5.8ZM234.359 57.92h-5.801L196.492 9.196V57.92h-5.801V0h5.801l32.066 48.639V0h5.801v57.92Z"/><path fill="#FF3030" d="M274.088 58.582c-2.486 0-4.53-.718-6.132-2.154-1.547-1.492-2.32-3.315-2.32-5.47 0-2.209.773-4.06 2.32-5.55 1.602-1.492 3.646-2.238 6.132-2.238 2.43 0 4.419.746 5.965 2.237 1.602 1.492 2.403 3.342 2.403 5.552 0 2.154-.801 3.977-2.403 5.469-1.546 1.436-3.535 2.154-5.965 2.154ZM68.236 70.584V129h-16.24V96.767L40.975 129h-13.59L16.283 96.519V129H.043V70.584H19.68l14.666 37.95 14.335-37.95h19.555ZM92.064 83.593v9.529h18.644v12.346H92.064v10.523h21.129V129h-37.37V70.584h37.37v13.009H92.064ZM142.679 70.584c6.132 0 11.49 1.243 16.075 3.728 4.64 2.431 8.203 5.856 10.689 10.275 2.486 4.42 3.729 9.474 3.729 15.163 0 5.635-1.271 10.662-3.812 15.081-2.486 4.419-6.049 7.899-10.689 10.44-4.585 2.486-9.915 3.729-15.992 3.729h-23.118V70.584h23.118Zm-1.243 44.081c4.751 0 8.48-1.298 11.187-3.894 2.706-2.596 4.06-6.27 4.06-11.02 0-4.806-1.354-8.508-4.06-11.104-2.707-2.651-6.436-3.977-11.187-3.977h-5.634v29.995h5.634ZM195.076 70.584V129h-16.241V70.584h16.241ZM237.077 115.799l-18.169 7.734-3.149 5.467H198.69l21.295-58.416h18.727L259.924 129h-17.152l-5.695-13.201Zm-2.031-13.2-5.781-14.449-7.419 21.557 13.2-7.108Z"/></svg>
